X: 65
T: Mai luobe
L: 1/8
M: 2/4
K: F
d f G A [I:setbarnb 1]| 
d f G A | 
c G/ A/c2 | 
E E/ D/C2 | 
c c d f | 
c E G c/ c/ | 
A E/ E/ F/ G/ E/ D/ | 
C4 | 
F F F D | 
c3A | 
d f c/ d/ c/ A/ | 
G FG2 | 
c G/ A/c2 | 
c> f d c | 
A> d F F/ G/ | 
A c/ A/ G A | 
F> G A E/ D/ | 
C4 |]

@@@ Tune index: 8939
